X: 140045
T: PADDY WHACK
Q: "Irish Jig."
R: Jig.
%R: jig
B: James Kerr "Merry Melodies" v.1 p.40 s.0 #45
Z: 2016 John Chambers <jc:trillian.mit.edu>
M: 6/8
L: 1/8
K: G
uG |\
GBd g>fg | edc BAG | GBd efg | fdd def |\
gbg afd | cde dBG | GAB cAd | BGG G2 :|
|: ud |\
BGB uc2ue | dBG uA2uG | GBd efg | fdd def |\
gbg afd | cde dBG | GAB cAd | BGG G2 :|

%%sep 1 1 500
%%sep 1 1 500

